X:1
T:The Harebell
T:The Harebell
T:William Smallwood (1831-1897)
T:by Mutopia - Pubblico dominio
T:by Mutopia - Pubblico dominio
C:William Smallwood (1831-1897)
Z:by Mutopia - Pubblico dominio
%%score { 1 | 2 }
L:1/8
Q:1/4=120
M:3/8
K:F
V:1 treble nm="Piano" snm="Pno."
V:2 bass 
V:1
"^Allegretto" c>dc | agf | A2 d | c3 | cGA | BDE | F3 | A3 | c>dc | agf | A2 d | c3 | cGA | BDE | %14
 F2 A | F3 || B2 A | Gdc | c2 F | A3 | B2 A | Gdc | c3 | A3 | c>dc | agf | A2 d | c3 | cGA | BDE | %30
 F2 A | F3 || G2 c | edc | c2 =B | d3 | G2 d | fed | d2 c | e3 | G2 c | edc | c2 =B | d3 | G2 d | %45
 fed | c2 e | c3 || c>dc | agf | A2 d | c3 | cGA | BDE | F3 | A3 | c>dc | agf | A2 d | c3 | cGA | %61
 BDE | F2 A | F3 || B2 A | Gdc | c2 F | A3 | B2 A | Gdc | c3 | A3 | c>dc | agf | A2 d | c3 | cGA | %77
 BDE | F2 A | F3 |] %80
V:2
 F,A,C | F,A,C | F,A,C | F,A,C | C,G,B, | C,G,B, | F,A,C | F,A,C | F,A,C | F,A,C | F,A,C | F,A,C | %12
 C,G,B, | C,G,B, | F,A,C | [F,A,]3 || C,G,B, | C,G,B, | F,A,C | F,A,C | C,G,B, | C,G,B, | F,A,C | %23
 F,A,C | F,A,C | F,A,C | F,A,C | F,A,C | C,G,B, | C,G,B, | F,A,C | [F,A,]3 || C,E,G, | C,E,G, | %34
 D,F,G, | =B,,F,G, | G,,D,G, | G,,D,G, | C,E,G, | C,E,G, | C,E,G, | C,E,G, | D,F,G, | =B,,F,G, | %44
 G,,D,G, | G,,D,G, | C,E,G, | [C,E,]3 || F,A,C | F,A,C | F,A,C | F,A,C | C,G,B, | C,G,B, | F,A,C | %55
 F,A,C | F,A,C | F,A,C | F,A,C | F,A,C | C,G,B, | C,G,B, | F,A,C | [F,A,]3 || C,G,B, | C,G,B, | %66
 F,A,C | F,A,C | C,G,B, | C,G,B, | F,A,C | F,A,C | F,A,C | F,A,C | F,A,C | F,A,C | C,G,B, | %77
 C,G,B, | F,A,C | [F,A,]3 |] %80

